src/svg/side/side_21.svg

<?xml version="1.0" encoding="UTF-8" standalone="no"?>
<svg
   xmlns:dc="http://purl.org/dc/elements/1.1/"
   xmlns:cc="http://creativecommons.org/ns#"
   xmlns:rdf="http://www.w3.org/1999/02/22-rdf-syntax-ns#"
   xmlns:svg="http://www.w3.org/2000/svg"
   xmlns="http://www.w3.org/2000/svg"
   xmlns:sodipodi="http://sodipodi.sourceforge.net/DTD/sodipodi-0.dtd"
   xmlns:inkscape="http://www.inkscape.org/namespaces/inkscape"
   id="Layer_1"
   data-name="Layer 1"
   viewBox="0 0 160 160"
   version="1.1"
   sodipodi:docname="side_21.svg"
   inkscape:version="0.92.2 (5c3e80d, 2017-08-06)">
  <metadata
     id="metadata25">
    <rdf:RDF>
      <cc:Work
         rdf:about="">
        <dc:format>image/svg+xml</dc:format>
        <dc:type
           rdf:resource="http://purl.org/dc/dcmitype/StillImage" />
      </cc:Work>
    </rdf:RDF>
  </metadata>
  <sodipodi:namedview
     pagecolor="#ffffff"
     bordercolor="#666666"
     borderopacity="1"
     objecttolerance="10"
     gridtolerance="10"
     guidetolerance="10"
     inkscape:pageopacity="0"
     inkscape:pageshadow="2"
     inkscape:window-width="1920"
     inkscape:window-height="976"
     id="namedview23"
     showgrid="false"
     inkscape:zoom="5.6568542"
     inkscape:cx="54.551761"
     inkscape:cy="94.015106"
     inkscape:window-x="0"
     inkscape:window-y="27"
     inkscape:window-maximized="1"
     inkscape:current-layer="Layer_1" />
  <defs
     id="defs4">
    <style
       id="style2">.cls-1,.cls-2,.cls-5{fill:#fff;}.cls-2,.cls-3{opacity:0.35;}.cls-4{opacity:0.5;}.cls-5{opacity:0.21;}</style>
  </defs>
  <title
     id="title6">Artboard 42 copy 209</title>
  <path
     class="cls-1"
     d="m 130.75,63 c -2.28944,-1.943209 -15.61,-0.48 -15.61,-0.48 l 0.86,1.88 2.34,4.88 c 2.50244,-1.081148 5.11422,-1.889157 7.79,-2.41 C 126.14,67 128,86 126,88 c -2,2 -8.41,3.25 -8.41,3.25 L 117,93 l -1,2.61 c 0,0 17,1.39 17,-10.61 0.65888,-16.305123 0.59844,-19.582324 -2.25,-22 z"
     id="path8"
     style="opacity:1;fill:#00ff00;fill-opacity:1"
     inkscape:connector-curvature="0"
     sodipodi:nodetypes="sccccsccccs" />
  <path
     class="cls-1"
     d="m 24.6,67.9 c 0,0 -4.65,0.28 -6.5,1.27 -0.48,0.25 -0.39,1.1 0.2,1.53 3.685216,2.820821 6.485598,6.637945 8.07,11 3.29,8.48 3.34,16.72 13.72,20.42 10.38,3.7 14.76,0 14.76,0 0,0 7.15,-9.12 -0.85,-17.91 0,0 -1.609375,-1.560625 -4.65,-0.58 -3.6254,1.169219 -7.52,1.86 -11.67,-5.69 C 33.53,70.39 31.47,67 24.6,67.9 Z"
     id="path10"
     style="fill:#00ff00;fill-opacity:1"
     inkscape:connector-curvature="0"
     sodipodi:nodetypes="ccccsccssc" />
  <path
     inkscape:connector-curvature="0"
     class="cls-1"
     d="M 19.806055,71.974853 C 24.464351,76.07859 25.692731,79.896869 26.37,81.7 c 3.29,8.48 3.34,16.72 13.72,20.42 10.38,3.7 14.76,0 14.76,0 0,0 5.347861,-5.978989 1.752297,-13.960011 0,0 3.900231,10.982124 -7.886643,10.859027 -5.46489,-0.05707 -10.499911,-0.78147 -14.530063,-5.934472 C 28.878004,86.298197 26.376434,74.190917 19.806055,71.974853 Z"
     id="path10-7"
     style="opacity:0.2;fill:#2b2b2b;fill-opacity:1"
     sodipodi:nodetypes="ccsccssc" />
  <ellipse
     class="cls-2"
     cx="24.71"
     cy="69.62"
     rx="6.45"
     ry="1.73"
     transform="translate(-4.23 1.65) rotate(-3.52)"
     id="ellipse12" />
  <ellipse
     class="cls-3"
     cx="24.94"
     cy="69.61"
     rx="4.84"
     ry="0.87"
     transform="translate(-4.23 1.66) rotate(-3.52)"
     id="ellipse14"
     style="fill:#010101;fill-opacity:1" />
  <path
     class="cls-3"
     d="M29.76,69.31c.52.84-4.77,1.17-4.77,1.17.38-1.08.33-1.65-.11-1.73C24.88,68.75,29.25,68.48,29.76,69.31Z"
     id="path16"
     style="fill:#010101;fill-opacity:1" />
  <path
     class="cls-4"
     d="M126.13,66.87S128,86,126,88s-8.41,3.25-8.41,3.25L117,93s8.84-1.21,10.92-4.1S129,71,129,71,129.25,65.73,126.13,66.87Z"
     id="path18"
     style="fill:#010101;fill-opacity:1" />
  <path
     class="cls-5"
     d="m 115.14,62.52 c 0,0 14.52354,-1.744716 16.0819,0.929432 C 128.9342,62.722544 125.17095,63.095061 122.4,63.42 l -6.42119,0.929576 z"
     id="path20"
     style="opacity:0.4;fill:#ffffff;fill-opacity:1"
     inkscape:connector-curvature="0"
     sodipodi:nodetypes="ccccc" />
  <path
     inkscape:connector-curvature="0"
     class="cls-1"
     d="m 45.393818,85.039444 c 5.250702,1.025213 9.040846,0.0858 10.512128,1.71693 C 55.389046,85.910471 55.00567,85.35909 54,84.21 53.899672,84.095364 52.077702,82.616343 49.35,83.63 38.544712,87.645417 37.849568,74.056235 31.757981,69.498913 c 6.15667,7.136616 5.78697,14.008019 13.635837,15.540531 z"
     id="path10-6"
     style="opacity:0.3;fill:#ffffff;fill-opacity:1"
     sodipodi:nodetypes="scsscs" />
</svg>

<svg xmlns="http://www.w3.org/2000/svg" viewBox="0 0 160 160">
  <path d="M130.8 63c-2.3-2-15.7-.5-15.7-.5l.9 1.9 2.3 4.9c2.5-1.1 5.2-2 7.8-2.4 0 .1 1.9 19.1-.1 21.1s-8.4 3.3-8.4 3.3L117 93l-1 2.6S133 97 133 85c.7-16.3.6-19.6-2.3-22z" fill="#0f0"/>
  <path d="M24.6 67.9s-4.7.3-6.5 1.3c-.5.2-.4 1 .2 1.5 3.7 2.8 6.5 6.6 8 11 3.4 8.5 3.4 16.7 13.8 20.4 10.4 3.7 14.8 0 14.8 0S62 93 54 84.2c0 0-1.6-1.6-4.7-.6-3.6 1.2-7.5 1.9-11.6-5.7-4.2-7.5-6.2-10.9-13.1-10z" fill="#0f0"/>
  <g fill="#fff">
    <ellipse cx="24.7" cy="69.6" rx="6.5" ry="1.7" transform="rotate(-3.5 24.7 69.7)" opacity=".3"/>
    <path d="M45.4 85c5.2 1 9 .1 10.5 1.8-.5-.9-.9-1.4-1.9-2.6-.1-.1-2-1.6-4.6-.6-10.9 4-11.6-9.5-17.6-14.1 6.1 7.1 5.7 14 13.6 15.5z" opacity=".3"/>
    <path d="M115.1 62.5s14.6-1.7 16.1 1c-2.3-.8-6-.4-8.8 0l-6.4.8z" opacity=".4"/>
  </g>
  <g fill="#010101">
    <path d="M19.8 72c4.7 4 5.9 7.9 6.6 9.7 3.3 8.5 3.3 16.7 13.7 20.4 10.4 3.7 14.8 0 14.8 0s5.3-6 1.7-14c0 0 3.9 11-7.9 11-5.4-.1-10.5-.9-14.5-6-5.3-6.8-7.8-19-14.4-21.1z" opacity=".16"/>
    <ellipse cx="24.9" cy="69.6" rx="4.8" ry=".9" transform="rotate(-3.5 24.9 69.7)" opacity=".35"/>
    <path d="M29.8 69.3c.5.9-4.8 1.2-4.8 1.2.4-1.1.3-1.7-.1-1.7 0 0 4.4-.3 4.9.5z" opacity=".35"/>
    <path d="M126.1 66.9S128 86 126 88s-8.4 3.3-8.4 3.3L117 93s8.8-1.2 11-4.1 1-17.9 1-17.9.3-5.3-2.9-4.1z" opacity=".5"/>
  </g>
</svg>
